svgs/sharp-regular/manat-sign.svg

<svg xmlns="http://www.w3.org/2000/svg" viewBox="0 0 384 512"><!--! Font Awesome Pro 6.6.0 by @fontawesome - https://fontawesome.com License - https://fontawesome.com/license (Commercial License) Copyright 2024 Fonticons, Inc. --><path d="M216 32l-48 0 0 65.5C73.3 109.3 0 190.1 0 288L0 456l0 24 48 0 0-24 0-168c0-71.4 51.9-130.6 120-142l0 334 48 0 0-334c68.1 11.4 120 70.7 120 142l0 168 0 24 48 0 0-24 0-168c0-97.9-73.3-178.7-168-190.5L216 32z"/></svg>

<svg xmlns="http://www.w3.org/2000/svg" viewBox="0 0 384 512"><!--! Font Awesome Pro 6.5.2 by @fontawesome - https://fontawesome.com License - https://fontawesome.com/license (Commercial License) Copyright 2024 Fonticons, Inc. --><path d="M216 32H168V97.5C73.3 109.3 0 190.1 0 288V456v24H48V456 288c0-71.4 51.9-130.6 120-142V480h48V146c68.1 11.4 120 70.7 120 142V456v24h48V456 288c0-97.9-73.3-178.7-168-190.5V32z"/></svg>
